!!!COM: Anon.
!!!OCL: Francis James Child
!!!OPR: The English and Scottish Popular Ballads
!!!OVM: Vol. 1
!!!ONB: Ballad No. 18, Tune No. 3
!!!ONM: No. 18
!!!PDT: 1882
!!!YEM: Public domain.
**kern
*M6/4
*G:
{4g
=1
2g
4g
(4e
4f#)
4g
=2
2a
4f#
2.d}
!! Second phrase:
=3
{2.b
2.cc
=4
4.dd
8dd
4b
4g
4g}
!! Third phrase:
{4g
=5
4g
4g
4g
4e
4f#
4g
=6
2a
4f#
2.d}
!! Fourth phrase:
=7
{2.b
2.cc
=8
4.dd
8dd
4b
4g
4g}
!! Fifth phrase:
{4g
=9
2b
4cc
2dd
4b
=10
2ee
4dd
2cc}
!! Sixth phrase:
{4b
=11
2a
4g
2f#
4e
=12
2a
4g
2f#}
!! Seventh phrase:
{4e
=13
2.d
2.g
=14
2.f#
4.e
8d
4e
=15
2.d}
!! Eighth phrase:
{4.g
8a
4f#
=16
4g
[2g
2g]}
====
*-
!!!OCY: Britain; England
!!!PPP: Boston
!!!ODT: <1882
!!!AFR: folk song
!!!AST: monophony
!!!AMT: compound duple
!!!SCA: Child Collection
!!!AIN: vox
!!!EEV: 1.0
!!!RDT: 1987 June
!!!YER: 1994 August 10
!!!VTS: 652652838
